!!!!SEGMENT: pl-wnifc--493-n--014_oginski-michal-kleofas--16-polonaises-14-a-quatre-mains.krn
!!!cenid: 18xx:3873
!!!COM: Ogiński, Michał Kleofas
!!!COM-rismID: pe30002379
!!!CDT: 1765/09/25-1833/10/15
!!!CNT:
!!!OTL: 16 Polonaises
!!!PDT: 1864
!!!AGN:
!!!SMS-siglum: PL-Wnifc
!!!SMS-shelfmark: 493/n
!!!SMS-variant:
!!!SMS-altvar:
!!!SMS-shelfwork: 014 W
!!!NIFC-rismSourceID: 1001157350
!!!NIFC-rismChildID: 1001157370
!!!NIFC-islandoraID: nifc:212371
!!!URL-pdf-islandora: https://repozytorium.nifc.pl/islandora/object/nifc%3A212371/datastream/PDF/view
!!!URL-scan: https://polish.musicsources.pl/pl/lokalizacje/galeria/druki-muzyczne/16843 @EN{Scan on Polish Music Sources Website} @PL{Skany w portalu Dziedzictwo Muzyki Polskiej w otwartym dostępie}
!!!ONB-nifc: UWAGA: w zbiorze znajduje się 14 Polonezów z Triami, pliki są numerowane jak w źródle.
!!!AIN: 4 piano
!!!key: G
**kern	**dynam	**kern	**dynam	**kern	**kern	**dynam
*part4	*part4	*part3	*part3	*part2	*part1	*part1
*staff4	*	*staff3	*	*staff2	*staff1	*
*I"Piano. Secondo.	*	*I"Piano. Secondo.	*	*I"Piano. Primo.	*I"Piano. Primo.	*
*Ipiano	*	*Ipiano	*	*Ipiano	*Ipiano	*
*ICklav	*	*ICklav	*	*ICklav	*ICklav	*
*clefF4	*	*clefF4	*	*clefG2	*clefG2	*
*k[f#]	*	*k[f#]	*	*k[f#]	*k[f#]	*
*G:	*	*G:	*	*G:	*G:	*
*M3/4	*	*M3/4	*	*M3/4	*M3/4	*
=1	=1	=1	=1	=1	=1	=1
!	!	!	!	!	!LO:TX:b:i:t=dolce.	!
!	!	!LO:TX:a:B:t=Moderato.	!	!	!LO:TX:a:B:t=Moderato.	!
2GGG/ 2GG	.	8r	p	(4.b/	(4.bb\	p
.	.	8D'\ 8G 8B	.	.	.	.
.	.	8D'\L 8G 8B	.	.	.	.
.	.	8D'\ 8G 8B	.	16a#X/LL	16aa#X\LL	.
.	.	.	.	16b/JJ	16bb\JJ	.
4r	.	8D'\ 8G 8B	.	4g/)	4gg\)	.
.	.	8D'\J 8G 8B	.	.	.	.
=2	=2	=2	=2	=2	=2	=2
2GGG/ 2GG	.	8r	.	(4.dd\	(4.ddd\	.
.	.	8D'\ 8G 8B	.	.	.	.
.	.	8D'\L 8G 8B	.	.	.	.
.	.	8D'\ 8G 8B	.	16cc#X\LL	16ccc#X\LL	.
.	.	.	.	16dd\JJ	16ddd\JJ	.
4r	.	8D'\ 8G 8B	.	4b\)	4bb\)	.
.	.	8D'\J 8G 8B	.	.	.	.
=3	=3	=3	=3	=3	=3	=3
2GGG/ 2GG	.	8r	.	(8g/L	(8gg\L	<
.	.	8D'\ 8G 8B	.	8a/	8aa\	.
.	.	8D'\L 8G 8B	.	8b/	8bb\	.
.	.	8D'\ 8G 8B	.	8cc/	8ccc\	.
4r	.	8D'\ 8G 8B	.	8cc#X/	8ccc#X\	.
.	.	8D'\J 8G 8B	.	8dd/J)	8ddd\J)	[
=4	=4	=4	=4	=4	=4	=4
2AAA/ 2AA	.	8r	.	8.dd/L	8.ddd\L	>
.	.	8D'\ 8c	.	.	.	.
.	.	.	.	16f#/Jk	16ff#\Jk	.
.	.	.	.	(32qqe#X/LLL	(32qqee#XLLL/	.
.	.	.	.	32qqf#/	32qqff#/)	.
.	.	.	.	32qqg/JJJ	32qqgg/JJJ	.
.	.	8D'\L 8c	.	2f#/)	2ff#\	]]
.	.	8D'\ 8c	.	.	.	.
4r	.	8D'\ 8c	.	.	.	.
.	.	8D'\J 8c	.	.	.	.
=5	=5	=5	=5	=5	=5	=5
2DD/ 2D	.	8r	>	2cc^\	2ccc^\	.
.	.	8F#'\ 8A 8c	.	.	.	.
.	.	8F#'\L 8A 8c	.	.	.	.
.	.	8F#'\ 8A 8c	.	.	.	.
4DD/ 4D	.	8F#'\ 8A 8c	]	8r	8r	.
.	.	8F#'\J 8A 8c	.	(32cc/LLL	(32ccc\LLL	.
.	.	.	.	32b/	32bb\	.
.	.	.	.	32a/	32aa\	.
.	.	.	.	32g/JJJ)	32gg\JJJ)	.
=6	=6	=6	=6	=6	=6	=6
2DD#X^>/ 2D#X	.	8r	>	4.f#/	4.ff#\	.
.	.	8A'\L 8c	.	.	.	.
.	.	8A'\ 8c	.	.	.	.
.	.	8A'\J 8c	]	(8f#Ss</	(8ff#sS\	.
4EE/ 4E	.	8r	.	4g/)	4gg\)	.
.	.	8G\ 8B	.	.	.	.
!LO:LB:g=original	!	!LO:LB:g=original	!	!LO:LB:g=original	!LO:LB:g=original	!
=7	=7	=7	=7	=7	=7	=7
2CC/ 2C	.	8r	.	4.e/	4.ee\	.
.	.	8A\L 8c	.	.	.	.
.	.	8A\ 8c	.	.	.	.
.	.	8A\J 8c	.	(16dd#X\LL	(16ddd#X\LL	.
.	.	.	.	16ee\JJ	16eee\JJ	.
4CC/ 4C	.	8A\L 8c	.	16ddn\LL	16dddn\LL	.
.	.	.	.	16cc\	16ccc\	.
.	.	8c\J 8e	.	16b\	16bb\	.
.	.	.	.	16a\JJ)	16aa\JJ)	.
=8	=8	=8	=8	=8	=8	=8
4.DD/ 4.D	.	8r	.	(4g/	(<4gg\	.
.	.	8B\L 8d	.	.	.	.
.	.	.	.	(16qqa/LL	(16qqaa/LL	.
.	.	.	.	16qqg/JJ	16qqgg/JJ	.
.	.	8A\J 8d	.	4f#/))	4ff#\))	.
!	!LO:HP:a	!	!	!	!	!
8D/L	<	8r	.	.	.	.
8C/	.	4r	.	4r	4r	.
8AA/J	[[	.	.	.	.	.
=9	=9	=9	=9	=9	=9	=9
8GG/L	.	4B\	f	4dd\	2.r	f
8DD/	.	.	.	.	.	.
8GG/	.	(16A#X\LL	.	(16cc#X\LL	.	.
.	.	16B\	.	16dd\	.	.
8DD/	.	16c\	.	16ee\	.	.
.	.	16B\JJ)	.	16dd\JJ)	.	.
8GG/	.	4G\	.	4b\	.	.
8DD/J	.	.	.	.	.	.
=10	=10	=10	=10	=10	=10	=10
8GG/L	.	4d\	.	4b\	4bb\	.
8DD/	.	.	.	.	.	.
8GG/	.	(16c#X\LL	.	(16a#X\LL	(16aa#X\LL	.
.	.	16d\	.	16b\	16bb\	.
8DD/	.	16e\	.	16cc\	16ccc\	.
.	.	16d\JJ)	.	16b\JJ)	16bb\JJ)	.
8GG/	.	4B\	.	4g/	4gg\	.
8DD/J	.	.	.	.	.	.
=11	=11	=11	=11	=11	=11	=11
8GG/L	.	(16G\LL	.	8r	8r	.
.	.	16F#\	.	.	.	.
8DD/	.	16A\	<	8b\ 8dd	8gg\	.
.	.	16G\JJ	.	.	.	.
8GG/	.	16B\LL	.	8b\L 8dd	8gg\L	.
.	.	16A\	.	.	.	.
8DD/	.	16c\	.	8b\ 8dd	8gg\	.
.	.	16B\JJ	.	.	.	.
8GG/	.	16d\LL	.	8b\ 8dd	8gg\	.
.	.	16c#X\	.	.	.	.
8DD/J	.	16e\	.	8b\J 8dd	8gg\J	.
.	.	16d\JJ)	[	.	.	.
!LO:LB:g=original	!	!LO:LB:g=original	!	!	!	!
=12	=12	=12	=12	=12	=12	=12
8AA/L	.	8d\L	.	8r	8r	.
8DD/	.	8F#\J	>	8cc\ 8dd	8ff#\	.
.	.	(32qqE#X/LLL	.	.	.	.
.	.	32qqF#/	.	.	.	.
.	.	32qqG/JJJ	.	.	.	.
8AA/	.	4F#\)	]	8cc\L 8dd	8ff#\L	.
8DD/	.	.	.	8cc\ 8dd	8ff#\	.
8AA/	.	4r	.	8cc\ 8dd	8ff#\	.
8DD/J	.	.	.	8cc\J 8dd	8ff#\J	.
!	!	!	!	!LO:LB:g=original	!LO:LB:g=original	!
=13	=13	=13	=13	=13	=13	=13
4D\	.	(4d^\	p	8r	4r	p
.	.	.	.	8a\ 8cc 8dd	.	.
4r	.	4F#\)	.	8a\L 8cc 8dd	8r	.
.	.	.	.	8a\ 8cc 8dd	(8aasSSs\L	.
4DD/	.	4r	.	8a\ 8cc 8dd	8eee\	.
.	.	.	.	8a\J 8cc 8dd	8ddd\J)	.
=14	=14	=14	=14	=14	=14	=14
4GG/	.	(4d^\	.	8r	4r	.
.	.	.	.	8g\ 8b 8dd	.	.
4r	.	4G\)	.	8g\L 8b 8dd	8r	.
.	.	.	.	8g\ 8b 8dd	(8bbSssS\L	.
4GG/	.	4r	.	8g\ 8b 8dd	8eee\	.
.	.	.	.	8g\J 8b 8dd	8ddd\J)	.
=15	=15	=15	=15	=15	=15	=15
2CC'/ 2C	.	8r	f	[4e/	[4ee\	f
.	.	8E\ 8A 8c	.	.	.	.
*	*	*tremolo	*	*	*	*
.	.	8E'\L 8A 8c	.	(16e/LL]	16ee\LL]	.
.	.	.	.	16f#/	(16ff#\	.
.	.	8E'\ 8A 8c	.	16g#X/	16gg#X\	.
.	.	.	.	16a/JJ	16aa\JJ	.
4CC/	.	8E'\ 8A 8c	.	16b\LL	16bb\LL	.
.	.	.	.	16cc\	16ccc\	.
.	.	8E'\J 8A 8c	.	16dd\	16ddd\	.
.	.	.	.	16ee\JJ)	16eee\JJ)	.
=16	=16	=16	=16	=16	=16	=16
8DD/L	.	8E\L 8G 8B	.	(16gn/LL	(16ggn\LL	.
.	.	.	.	16b/	16bb\	.
8DD/J	.	8E\J 8G 8A 8c	.	16a/	16aa\	.
.	.	.	.	16f#/JJ)	16ff#\JJ)	.
8r	.	8r	.	(4f#/	(4ff#\	.
8DD/L	.	8D\L 8A 8c	.	.	.	.
8GG/J	.	8D\J 8G 8B	.	8g/)	8gg\)	.
!	!	!LO:TX:b:i:t=Fine.	!	!	!LO:TX:b:i:t=Fine.	!
8r	.	8r	.	8r	8r	.
!LO:LB:g=original	!	!LO:LB:g=original	!	!	!	!
==:|17	==:|17	==:|17	==:|17	==:|17	==:|17	==:|17
4DD#X/	.	8r	mf	4.b\	4.bb\	mf
.	.	8F#\ 8A 8B	.	.	.	.
4r	.	8F#'\L 8A 8B	.	.	.	.
.	.	8F#'\ 8A 8B	.	(16.cc^\LL	(16.ccc^\LL	.
.	.	.	.	32b\JJk)	32bb\JJk)	.
4DD#/	.	8F#'\ 8A 8B	.	(16.cc^\LL	(16.ccc^\LL	.
.	.	.	.	32b\K)	32bb\K)	.
.	.	8F#'\J 8A 8B	.	(16.cc^\	(16.ccc^\	.
.	.	.	.	32b\JJk)	32bb\JJk)	.
=18	=18	=18	=18	=18	=18	=18
4EE/	.	8r	.	8.g/L	8.gg\L	.
.	.	8E\L 8G 8B	.	.	.	.
.	.	.	.	16b/Jk	16bb\Jk	.
4r	.	8E\ 8G 8B	.	4ee\	4eee\	.
.	.	8E\J 8G 8B	.	.	.	.
4EE/ 4E	.	8r	.	4r	4r	.
.	.	8G\ 8B 8e	.	.	.	.
!LO:LB:g=original	!	!LO:LB:g=original	!	!LO:LB:g=original	!LO:LB:g=original	!
=19	=19	=19	=19	=19	=19	=19
*	*	*	*	*tremolo	*tremolo	*
!	!	!LO:TX:b:i:t=espress.	!	!	!	!
4BBB/ 4BB	.	8AsSSs\L	.	8r	4r	.
.	.	8c\J	.	8d#X/ 8f# 8a	.	.
4r	.	8B\L	.	8d#/L 8f# 8a	8r	.
.	.	(8A'^\	.	8d#/ 8f# 8a	8bb\L	.
4BBB/ 4BB	.	8Gn'^\	.	8d#/ 8f# 8a	8bb\	.
.	.	8F#'^\J)	.	8d#/J 8f# 8a	8bb\J	.
=20	=20	=20	=20	=20	=20	=20
*	*	*	*	*	*Xtremolo	*
4EE/	.	(16A\LL	.	8r	([4bb^\	.
.	.	16G\	.	.	.	.
.	.	16F#\	.	8e/ 8g	.	.
.	.	16E\JJ)	.	.	.	.
4r	.	4E\	.	8e/L 8g	16bb\LL]	.
.	.	.	.	.	16aa\	.
.	.	.	.	8e/ 8g	16gg\	.
.	.	.	.	.	16ff#\JJ	.
4EE/	.	4r	.	8e/ 8g	4ee\)	.
.	.	.	.	8e/J 8g	.	.
=21	=21	=21	=21	=21	=21	=21
!	!	!	!	!	!LO:TX:b:i:t=dolce.	!
4FF#/	.	8r	p	4a/	4aa\	p
.	.	8D\L 8A 8c	.	.	.	.
4r	.	8D\ 8A 8c	.	8r	8r	.
.	.	8D\ 8A 8c	.	(8asSSs</L	(8aasSSs\L	.
4DD/	.	8D\ 8F# 8A 8c	.	8b/	8bb\	.
.	.	8D\J 8F# 8A 8c	.	8cc/J)	8ccc\J)	.
=22	=22	=22	=22	=22	=22	=22
4GG/	.	8r	.	(8.cc#X\L	(8.ccc#X\L	.
*	*	*Xtremolo	*	*	*	*
.	.	8D\L 8G 8B	.	.	.	.
.	.	.	.	16dd\Jk	16ddd\Jk	.
4r	.	8D\ 8G 8B	.	4b\)	4bb\)	.
.	.	8D\J 8G 8B	.	.	.	.
4GG/	.	8r	.	4r	4r	.
.	.	8D\ 8G 8B	.	.	.	.
!LO:LB:g=original	!	!LO:LB:g=original	!	!	!	!
=23	=23	=23	=23	=23	=23	=23
8FF#/	.	8D\ 8A 8c	.	8a'\L	8aa'\L	.
8r	.	8r	.	(16dd\L	(16ddd\L	.
.	.	.	.	16cc\JJ)	16ccc\JJ)	.
8FF#/	.	8D\ 8A 8c	.	8a'/L	8aa'\L	.
8r	.	8r	.	(16cc/L	(16ccc\L	.
.	.	.	.	16a/JJ)	16aa\JJ)	.
8FF#/	.	8D\ 8G 8B	.	8b'/L	8bb'\L	.
8r	.	8r	.	(16b/L	(16bb\L	.
.	.	.	.	16g/JJ)	16gg\JJ)	.
=24	=24	=24	=24	=24	=24	=24
!LO:TX:b:i:t=Da Capo al Fine.	!	!	!	!	!	!
4DD/	.	4D\ 4F# 4A	.	4a/	(16ff#\LL	>
.	.	.	.	.	16dd\	.
.	.	.	.	.	16cc#X\	.
.	.	.	.	.	16dd\JJ	.
!	!	!	!	!LO:TX:b:i:t=Da Capo al Fine.	!	!
4r	.	4r	.	4r	16dd#X\LL	.
.	.	.	.	.	16ee\	.
.	.	.	.	.	16ffn\	.
.	.	.	.	.	16ff#X\JJ	.
4r	.	4r	.	4r	16gg\LL	.
.	.	.	.	.	16gg#X\	.
.	.	.	.	.	16aa\	.
.	.	.	.	.	16aa#X\JJ)	]
!LO:PB:g=original	!	!LO:PB:g=original	!	!LO:PB:g=original	!LO:PB:g=original	!
==25	==25	==25	==25	==25	==25	==25
*	*	*	*	*Xtremolo	*	*
!	!	!LO:TX:B:t=Trio.	!	!	!	!
!	!	!LO:TX:b:i:t=dolce.	!	!	!LO:TX:b:B:t=Trio.	!
4GG/	.	(16.G\LL	p	8r	2.dddTT\	p
.	.	32D\K	.	.	.	.
.	.	16.B\	.	8g\ 8b 8dd	.	.
.	.	32G\JJk)	.	.	.	.
4GG/	.	(4.d^\	.	8g\L 8b 8dd	.	.
.	.	.	.	8g\ 8b 8dd	.	.
4GG/	.	.	.	8g\ 8b 8dd	.	.
.	.	8B\)	.	8g\J 8b 8dd	.	.
=26	=26	=26	=26	=26	=26	=26
4DD/	.	(8.A\L	.	8r	2.dddTTT\	.
.	.	.	.	8f#\ 8cc 8dd	.	.
.	.	16B\Jk)	.	.	.	.
4GG/	.	4G\	.	8g\L 8b 8dd	.	.
.	.	.	.	8g\ 8b 8dd	.	.
4GG/	.	4r	.	8g\ 8b 8dd	.	.
.	.	.	.	8g\J 8b 8dd	.	.
=27	=27	=27	=27	=27	=27	=27
4GG/	.	(16.B\LL	<	8r	2.dddTTT\	<
.	.	32G\K	.	.	.	.
.	.	16.d\	.	8b\ 8dd	.	.
.	.	32B\JJk)	[	.	.	.
4GG/	.	(4.g\	>	8b\L 8dd	.	.
.	.	.	.	8b\ 8dd	.	[
4GG/	.	.	.	8b\ 8dd	.	>
.	.	8d\)	]	8b\J 8dd	.	]]
!LO:LB:g=original	!	!LO:LB:g=original	!	!LO:LB:g=original	!LO:LB:g=original	!
=28	=28	=28	=28	=28	=28	=28
4DD/	.	(8.csS\L	.	8r	2dddTT\	.
.	.	.	.	8f#\ 8cc 8dd	.	.
.	.	16d\Jk)	.	.	.	.
4GG/	.	4B\	.	8g\L 8b 8dd	.	.
.	.	.	.	8g\ 8b 8dd	.	.
.	.	.	.	.	16qqccc#X/LL	.
.	.	.	.	.	16qqddd/JJ	.
4GG/	.	4r	.	8g\ 8b 8dd	8eee\	.
.	.	.	.	8g\J 8b 8dd	8r	.
=29	=29	=29	=29	=29	=29	=29
!	!	!	!	!	!LO:TX:b:t=1	!
8r	.	(4.e^\	.	2.r	2.r	.
8CC/	.	.	.	.	.	.
(8C/L	.	.	.	.	.	.
8D/	.	8G#X\L	<	.	.	.
8C/	.	8A\	.	.	.	.
8GG#X/J)	.	8B\J)	.	.	.	.
=30	=30	=30	=30	=30	=30	=30
8AA/L	.	8c\L	.	4r	2.r	.
8AA#X/J	.	8c#X\	.	.	.	.
(<4BB/	.	8d\	.	4r	.	.
.	.	8d#X\J	[	.	.	.
8C/L	.	[4e\	.	8r	.	.
8C#X/J	.	.	.	(8g/ 8b-X	.	.
!LO:LB:g=original	!	!LO:LB:g=original	!	!	!	!
=31	=31	=31	=31	=31	=31	=31
4D\)	.	(8e\]	.	8f#/L) 8a	2.r	.
.	.	4F#^<\)	.	8f#/ 8a	.	.
4Cn/	.	.	.	8f#/ 8a	.	.
.	.	(8d^<\L	.	8f#/J 8a 8dd	.	.
8BB/L	.	8G\	.	8g\L 8dd	.	.
8GG/J	.	8d^<\J)	.	8g\J 8b 8dd	.	.
=32	=32	=32	=32	=32	=32	=32
8DD/L	.	(16d\LL	.	8b\L 8dd	(16bb\LL	.
.	.	16B\	.	.	16gg\	.
8D/J	.	16c\	.	8a\J 8cc	16aa\)	.
.	.	16A\JJ)	.	.	16ff#\JJ	.
8r	.	(4A^\	.	(4a^\ 4cc	(4ff#^\	.
8DD/L	.	.	.	.	.	.
8GG/J	.	8G\)	.	8g/) 8b	8gg\)	.
!	!	!LO:TX:b:i:t=Fine.	!	!	!LO:TX:b:i:t=Fine.	!
8r	.	8r	.	8r	8r	.
!	!	!	!	!LO:LB:g=original	!LO:LB:g=original	!
==:|33	==:|33	==:|33	==:|33	==:|33	==:|33	==:|33
8DD'/L 8D	.	8F#'\L 8A 8d	ff	4r	(16dd\LL	ff
.	.	.	.	.	16qqee/LL	.
.	.	.	.	.	16qqdd/JJ	.
.	.	.	.	.	16cc#X\	.
8DD'/ 8D	.	8F#'\ 8A 8d	.	.	16dd\	.
.	.	.	.	.	16ee\JJ	.
8DD'/ 8D	.	8F#'\ 8A 8d	.	4r	16ff#\LL	.
.	.	.	.	.	16gg\	.
8DD'/ 8D	.	8F#'\ 8A 8d	.	.	16aa\	.
.	.	.	.	.	16bb\JJ	.
8DD'/ 8D	.	8F#'\ 8A 8d	.	(16cc#X\LL	16ccc#X\LL	.
.	.	.	.	16dd\	16ddd\	.
8DD'/J 8D	.	8F#'\J 8A 8d	.	16a\	16aa\	.
.	.	.	.	16f#\JJ)	16ff#\JJ)	.
!LO:LB:g=original	!	!LO:LB:g=original	!	!	!	!
=34	=34	=34	=34	=34	=34	=34
8DD'/L 8D	.	8G'\L 8A 8c#X	.	4e/	(16ee\LL	.
.	.	.	.	.	16ff#\	.
8DD'/ 8D	.	8G'\ 8A 8c#	.	.	16gg\	.
.	.	.	.	.	16ff#\JJ	.
8DD'/ 8D	.	8G'\ 8A 8c#	.	16r	16ee\LL	.
.	.	.	.	(16cc#X\LL	16ccc#X\	.
8DD'/ 8D	.	8G'\ 8A 8c#	.	16ee\	16eee\	.
.	.	.	.	16dd\JJ	16ddd\JJ	.
8DD'/ 8D	.	8G'\ 8A 8c#	.	16cc#\LL	16ccc#\LL	.
.	.	.	.	16b\	16bb\	.
8DD'/J 8D	.	8G'\J 8A 8c#	.	16a\	16aa\	.
.	.	.	.	16g\JJ)	16gg\JJ)	.
!	!	!	!	!LO:LB:g=original	!LO:LB:g=original	!
=35	=35	=35	=35	=35	=35	=35
8DD'/L 8D	.	8F#'\L 8A 8cn	.	(16f#/LL	(16ff#\LL	.
.	.	.	.	16d/	16dd\	.
8DD'/ 8D	.	8F#'\ 8A 8c	.	16f#/	16ff#\	.
.	.	.	.	16e/JJ	16ee\JJ	.
8DD'/ 8D	.	8F#'\ 8A 8c	.	16g/LL	16gg\LL	.
.	.	.	.	16f#/	16ff#\	.
8DD'/ 8D	.	8F#'\ 8A 8c	.	16a/	16aa\	.
.	.	.	.	16g/JJ	16gg\JJ	.
8DD'/ 8D	.	8F#'\ 8A 8c	.	16b/LL	16bb\LL	.
.	.	.	.	16a/	16aa\	.
8DD'/J 8D	.	8F#'\J 8A 8c	.	16ccn/	16ccc\	.
.	.	.	.	16b/JJ)	16bb\JJ)	.
=36	=36	=36	=36	=36	=36	=36
!LO:TX:b:i:t=Trio Da Capo al Fine.	!	!	!	!	!	!
4DD/ 4D	.	4F#\ 4A 4c	.	4cc\	(16ddd\LL	>
.	.	.	.	.	16ccc\	.
.	.	.	.	.	16bb\	.
.	.	.	.	.	16aa\JJ	.
4r	.	4r	.	4r	16gg\LL	.
.	.	.	.	.	16ff#\	.
.	.	.	.	.	16ee\	.
.	.	.	.	.	16dd\JJ	.
!	!	!	!	!LO:TX:b:i:t=Trio Da Capo al Fine.	!	!
4r	.	4r	.	4r	16cc#X\LL	.
.	.	.	.	.	16dd\	.
.	.	.	.	.	8qff#/	.
.	.	.	.	.	16ee\	.
.	.	.	.	.	16dd\JJ)	]
==	==	==	==	==	==	==
*-	*-	*-	*-	*-	*-	*-
!!!RDF**kern: > = above
!!!RDF**kern: < = below
!!!system-decoration: [(s1,s2)][(s3,s4)]
!!!ENC: Mateusz Solarz
!!!END: 2022-07-25
!!!ENC: Urszula Świątek
!!!END: 2022-08-22
!!!YEC: Copyright 2022 Narodowy Instytut Fryderyka Chopina (https://polishscores.org)
!!!YEM: License CC-BY-4.0 (https://creativecommons.org/licenses/by/4.0)
